X: 64
T: Pieśń na cześć i chwałę Najświętszej Maryi Panny
C: X. A. Kędzierski
%%abc-version 2.0
%%abcx-abcm2ps-target-version 5.9.1 (29 Sep 2008)
%%abc-creator hum2abc beta
%%abcx-conversion-date 2021/10/04 07:38:40
%%abc-edited-by Tomasz Grochalski
%%abc-edited-by Kamil Watkowski
%%abcx-initial-encoding-date 2021-08-13
%%humdrum-veritas 3769207481
%%humdrum-veritas-data 525751372
%%linebreak <none>
%%barnumbers 0
L: 1/4
M: 3/4
N: Derived from pl-kozmzk--mzk-m-189_kedzierski-x-a-piesn-na-czesc-i-chwale-najswietszej-maryi-panny.krn
%%staves {1 2}
V: 1 clef=treble
V: 2 clef=bass
K: Bb
[V:1] [B2F2D2][BFB,] | 
[V:2] F,2F, & B,,2D, | 
[V:1] [BD][AFC][BFD] | 
[V:2] F,F,2 & B,,_E,D, | 
[V:1] [c2F2][cAF] | 
[V:2] F,2[F,F,,] & A,,2x | 
[V:1] [ecF][dBF][c3//A3//F3//] (3F/8[G/8=E/8][A/8_E/8] | 
[V:2] [A,A,,][B,B,,][F,/F,,/] z/ | 
[V:1] [BFD][BFD][BD] | 
[V:2] B,2F, & B,,2B,, | 
[V:1] [B_D][A_EC][BD] | 
[V:2] [=E,G,,][F,F,,][F,D,] | 
[V:1] [dBF][cF][c3//A3//F3//] (7:4:7^c/16d/16A/16B/16^F/16G/16=E/16 ]|:  
[V:2] B,,F,!fermata!F,,/ z/ ]|:  
[V:1] [F/C/-][F/C/][eF][d/F/][c/F/] | 
[V:2] [A,A,,][A,C,][B,/B,,/][F,/F,,/] | 
[V:1] [B/F/][c/F/E/][dF][BF] | 
[V:2] [B,/D,/][A,/A,,/][B,B,,][B,D,] | 
[V:1] Gc[d/F/][c/E/] & G2x | 
[V:2] C2B,/A,/ & E,2F, | 
[V:1] [B/F/][A/E/][B/F/D/][d/B/F/][cAE] | 
[V:2] [B,/D,/][C/C,/][B,/B,,/]F,/F,, | 
[V:1] [B2F2D2]z :|]  
[V:2] [B,2B,,2]z :|]  
[V:1]  [K:Bb] [M:C]!turn![BF]>d c/g/f/e/- | 
[V:2]  [K:Bb] [M:C]B,2E2 & B,,2F,^F, | 
[V:1] e/d/^c/d/ f/e/G/=c/ | 
[V:2] B,2C2 & G,2E,2 | 
[V:1] FB2A & F2E2 | 
[V:2] D_DC2 & F,4 | 
[V:1] [B2F2D2] |]  
[V:2] B,2 & B,,2 |]  


